X: 108
U:~=!turn!
M:C|
L:1/8
K:F
c !segno!|: (AF)cF dFcF | (AF)cF ABcB | (AF)cF dFcA | (BA){/^F}GA xxx"2nd"e & xxxx BcdB :| T(fg)ag Tf2 (cf) | {/a}gfga baga |


